X: 12
T: Tick Dance Song (a)
C: Anon.
%%abc-version 2.0
%%abcx-abcm2ps-target-version 5.9.1 (29 Sep 2008)
%%abc-creator hum2abc beta
%%abcx-conversion-date 2020/08/10 20:56:09
%%abc-copyright Electronic Copyright 2000 David Huron
%%abc-edited-by David Huron
%%abcx-initial-encoding-date August 27, 2000
%%humdrum-veritas 1845058602
%%humdrum-veritas-data 438646014
%%linebreak <none>
%%barnumbers 0
L: 1/8
M: 2/4
Q: 1/4=104
K: Bb clef=bass
G, G,G,2 | 
G,2G,2 | 
B, G, G, z[M:3/4] | 
G, G, G, G, G, z | 
D2C2B, G, | 
B, G, G, zG,2[M:2/4] | 
B, G,G,2[M:3/4] | 
B, G,C2B, G,[M:2/4] | 
B, G, G, z[M:3/4] | 
G, G, G, G, G, z | 
G, G, G, G,G,2[M:2/4] | 
B, G, G, z[M:3/4] | 
G, G, G, G, G, z | 
D2C2B, G, | 
B, G, G, zG,2[M:2/4] | 
B, G,G,2[M:3/4] | 
B, G,C2B, G,[M:2/4] | 
B, G, G, z[M:3/4] | 
G, G, G, G, G, z | 
G, G, G, G,G,2[M:2/4] | 
B, G, G, z[M:3/4] | 
G, G, G, G, G, z | 
D2C2C G, | 
B, G, G, zG,2[M:2/4] | 
B, G, G, z[M:3/4] | 
B,2C2B, G,[M:2/4] | 
B,2G, z[M:3/4] | 
G, G, G, G, G, z | 
G, G, G, G,G,2[M:2/4] | 
B, G, G, z[M:3/4] | 
G, G, G, G, G, z | 
D2C2C G, | 
B, G, G, zG,2[M:2/4] | 
B, G, G, z[M:3/4] | 
B,2C2B, G,[M:2/4] | 
B,2G, z[M:3/4] | 
G, G, G, G, G, z | 
G, G, G, G,G,2[M:2/4] | 
B, G, G, z[M:3/4] | 
G, G, G, G, G, z | 
G,2C2B, G,[M:2/4] | 
B, G, G, z[M:3/4] | 
G, G, G, G, G, z |]  


